X:1
T:James Gibb editions
T:Questi tuoi occhi - Bellasio
%%score [ 1 2 3 ]
L:1/8
Q:1/4=108
M:2/2
K:D
V:1 treble nm="Soprano" snm="S"
V:2 treble nm="Alto" snm="A"
V:3 treble-8 nm="Tenor" snm="T"
V:1
"^Paolo Bellasio\n(1554-94)""^Questi tuoi occhi ardenti" B4 d2 d2 | c2 e2 ^d4 | e2 =d2 A2 A2 | %3
w: Que- sti tuoi|oc- chi~~ar- den-|ti, que- sti tuoi|
w: Que- ste d'or|chio- me~~er- ran-|ti, que- ste d'or|
w: Al- lor ti|guar- de- ra-|i, al- lor ti|
 A2 B2 B4- | B4 B4 |[M:2/2] A2 d2 B2 e2- | e2 d2 c4 | B8 | B2 BB B2 A2 | G4 F4 | z2 B2 B2 e2 | %11
w: oc- chi~~ar- den\-|* ti|Ch'a- bru- cia- no|* le gen-|ti|Pre- sto si smor- ze-|ran- no|E le per-|
w: chio- me~~er- ran\-|* ti,|Con che, le- ghi|* gli~~a- man-|ti,|Pre- sto s'in- bian- che-|ran- no|E le per-|
w: guar- de- ra\-|* i|Nel spec- chio~~e poi|* di- ra-|i:|Bel- lez- za non ri-|nuo- va|Co- si mi|
 d2 c2 B2 B2 | A3 G F4 | E8 |] %14
w: so- ne più non|ar- de- ran-|no.|
w: so- ne più non|le- ghe- ran-|no.|
w: pen- so,~~ahi- mè, ma|non mi gio-|va.|
V:2
 G4 F2 ^G2 | A2 A2 F4 | G2 F2 F3 F | E2 G2 F4 | G2 G2 DCDE |[M:2/2] F2 F2 G2 G2 | (A2 B4 ^A2) | %7
w: Que- sti tuoi|oc- chi~~ar- den-|ti, que- sti tuoi|oc- chi~~ar- den-|ti Ch'a- bru\- * * *|* cia- no le|gen\- * *|
w: Que- ste d'or|chio- me~~er- ran-|ti, que- ste d'or|chio- me~~er- ran-|ti, Con che, * * *|* le- ghi glia-|man\- * *|
w: Al- lor ti|guar- de- ra-|i, al- lor ti|guar- de- ra-|i Nel spec\- * * *|* chio~~e poi di-|ra\- * *|
 B4 G2 GG | G2 F2 E4- | E4 ^D2 =D2 | D2 G2 F2 E2 | F4 G4 | F2 E4 ^D2 | E8 |] %14
w: ti Pre- sto si|smor- ze- ran\-|* no E|le per- so- ne|più non|ar- de- ran-|no.|
w: ti, Pre- sto s'in-|bian- che- ran\-|* no E|le per- so- ne|più non|le- ghe- ran-|no.|
w: i: Bel- lez- za|non ri- nuo\-|* va Co-|si mi pen- so,~~ahi-|mè, ma|non mi gio-|va.|
V:3
 E4 B2 B2 | A2 =c2 B4 | E2 B2 d2 d2 | c2 e2 ^d4 | e2 E2 (GABc |[M:2/2][K:treble-8] d2 B2 e2 e2 | %6
w: Que- sti tuoi|oc- chi~~ar- den-|ti, que- sti tuoi|oc- chi~~ar- den-|ti Ch'a- bru\- * * *|* cia- no le|
w: Que- ste d'or|chio- me~~er- ran-|ti, que- ste d'or|chio- me~~er- ran-|ti, Con che, * * *|* le- ghi glia-|
w: Al- lor ti|guar- de- ra-|i, al- lor ti|guar- de- ra-|i Nel spec\- * * *|* chio~~e poi di-|
 f8 | B4 e2 ee | e2 d2 =c4 | B6 B2 | B2 e2 d2 c2 | B2 A2 GABc | d2) A2 B4 | E8 |] %14
w: gen-|ti Pre- sto si|smor- ze- ran-|no E|le per- so- ne|più non ar\- * * *|* de- ran-|no.|
w: man-|ti Pre- sto s'in-|bian- che- ran-|no E|le per- so- ne|più non le\- * * *|* ghe- ran-|no.|
w: ra-|i: Bel- lez- za|non ri- nuo-|va Co-|si mi pen- so,~~ahi-|mè, ma non * * *|* mi gio-|va.|

